icons/lifebuoy-fill.svg

<svg xmlns="http://www.w3.org/2000/svg" width="24" height="24" fill="none"><g clip-path="url(#a)"><g><path fill="#121212" d="M12 2C17.523 2 22 6.477 22 12C22 17.523 17.523 22 12 22C6.477 22 2 17.523 2 12C2 6.477 6.477 2 12 2ZM7.197 14.682L5.022 16.856C5.52646 17.5789 6.13971 18.2195 6.84 18.755L7.145 18.978L9.318 16.803C8.51081 16.3509 7.83 15.7035 7.338 14.92L7.198 14.682H7.197ZM16.803 14.682C16.3509 15.4892 15.7035 16.17 14.92 16.662L14.682 16.802L16.856 18.978C17.5789 18.4735 18.2195 17.8603 18.755 17.16L18.978 16.856L16.803 14.682ZM12 8C10.9391 8 9.92172 8.42143 9.17157 9.17157C8.42143 9.92172 8 10.9391 8 12C8 13.0609 8.42143 14.0783 9.17157 14.8284C9.92172 15.5786 10.9391 16 12 16C13.0609 16 14.0783 15.5786 14.8284 14.8284C15.5786 14.0783 16 13.0609 16 12C16 10.9391 15.5786 9.92172 14.8284 9.17157C14.0783 8.42143 13.0609 8 12 8ZM7.145 5.022C6.4217 5.52638 5.78078 6.13964 5.245 6.84L5.022 7.145L7.197 9.318C7.64906 8.51081 8.29651 7.83 9.08 7.338L9.318 7.198L7.145 5.022ZM16.855 5.022L14.682 7.197C15.4892 7.64906 16.17 8.29651 16.662 9.08L16.802 9.318L18.978 7.145C18.4736 6.4217 17.8604 5.78078 17.16 5.245L16.856 5.022H16.855Z"/></g></g><defs><clipPath id="a"><rect width="24" height="24" fill="white"/></clipPath></defs></svg>

<svg width="24" height="24" fill="none" xmlns="http://www.w3.org/2000/svg"><g clip-path="url(#a)"><path d="M12 2c5.523 0 10 4.477 10 10s-4.477 10-10 10S2 17.523 2 12 6.477 2 12 2ZM7.197 14.682l-2.175 2.174a8.55 8.55 0 0 0 1.818 1.899l.305.223 2.173-2.175a5.527 5.527 0 0 1-1.98-1.883l-.14-.238h-.001Zm9.606 0a5.527 5.527 0 0 1-1.883 1.98l-.238.14 2.174 2.176a8.55 8.55 0 0 0 1.899-1.818l.223-.304-2.175-2.174ZM12 8a4 4 0 1 0 0 8 4 4 0 0 0 0-8ZM7.145 5.022a8.549 8.549 0 0 0-1.9 1.818l-.223.305 2.175 2.173a5.527 5.527 0 0 1 1.883-1.98l.238-.14-2.173-2.176Zm9.71 0-2.173 2.175a5.527 5.527 0 0 1 1.98 1.883l.14.238 2.176-2.173a8.549 8.549 0 0 0-1.818-1.9l-.304-.223h-.001Z" /></g><defs><clipPath id="a"><path fill="#fff" d="M0 0h24v24H0z"/></clipPath></defs></svg>
